X: 225
T:Sir Patrick Spens
S:Christie's Traditional Ballad Airs
M:C
L:1/8
Q:1/4=80
K:AMix
(E>F)|     G2  G2      G2   (GA/B/)|    (AF) (FE/F/) ({F}A2)\
 A>F |({G} F2) E2      E2   (EF)   |(({F}A3)   F)        E2
(E>F)|({EF}G2) G>A     B2   (G/A/B)|     AF  (FE/F/) ({F}A2)\
 A>F |({G} F2) E2      E2   (cB)   |    (A3    F)        F2||
zc |   c2      c2      d3     c    |     B2 B>c      ({c}e3)\
 d |  (dc)    (BA) ({F}E3)    F    |(({F}A3    F))       E2
zc |   c2      c2      d2    dc    |     d2  (de/f/) ({f}e3)\
 d |  (dc)    (BA) ({F}E2)  (cB)   |    (A3    F)        E2|]

This basically hexatonic pipe tune ends on E but is really A-final:

